assets/images/ico_account.svg

<svg width="12" height="14" viewBox="0 0 12 14" fill="none" xmlns="http://www.w3.org/2000/svg">
<path d="M5.92312 7.86407C3.92632 7.86407 2.302 6.23975 2.302 4.24295C2.302 2.24615 3.92632 0.621826 5.92312 0.621826C7.91992 0.621826 9.54424 2.24615 9.54424 4.24295C9.54424 6.23975 7.91992 7.86407 5.92312 7.86407ZM5.92312 1.61639C4.47472 1.61639 3.29656 2.79455 3.29656 4.24295C3.29656 5.69135 4.47472 6.86951 5.92312 6.86951C7.37152 6.86951 8.54968 5.69135 8.54968 4.24295C8.54968 2.79455 7.37152 1.61639 5.92312 1.61639Z" fill="white"/>
<path d="M11.2668 13.7543H0.49728C0.22272 13.7543 0 13.5318 0 13.257C0 9.94189 2.74848 7.03381 5.88192 7.03381C9.07032 7.03381 11.7638 9.88357 11.7638 13.257C11.7641 13.5318 11.5414 13.7543 11.2668 13.7543ZM1.0188 12.76H10.745C10.4942 10.1874 8.32944 8.02837 5.88192 8.02837C3.4344 8.02837 1.26984 10.1874 1.0188 12.76Z" fill="white"/>
</svg>

<svg width="12" height="14" fill="none" xmlns="http://www.w3.org/2000/svg"><path d="M5.923 7.864a3.625 3.625 0 0 1-3.621-3.621A3.625 3.625 0 0 1 5.923.622a3.625 3.625 0 0 1 3.621 3.621 3.625 3.625 0 0 1-3.62 3.621zm0-6.248a2.63 2.63 0 0 0-2.626 2.627A2.63 2.63 0 0 0 5.923 6.87 2.63 2.63 0 0 0 8.55 4.243a2.63 2.63 0 0 0-2.627-2.627z" fill="#fff"/><path d="M11.267 13.754H.497A.497.497 0 0 1 0 13.257c0-3.315 2.748-6.223 5.882-6.223 3.188 0 5.882 2.85 5.882 6.223a.497.497 0 0 1-.497.497zM1.019 12.76h9.726c-.25-2.573-2.416-4.732-4.863-4.732-2.448 0-4.612 2.16-4.863 4.732z" fill="#fff"/></svg>
